public/livestock/castle.svg

<svg fill="none" height="179" viewBox="0 0 179 179" width="179" xmlns="http://www.w3.org/2000/svg"><path d="m26.6458 117.611 13.8991-13.899 13.5888 13.589 7.9344-7.929 13.8992 13.899v13.248l13.2477-13.248v-80.1178l-13.8992 13.8992v22.938h-3.1707v-7.7156h-7.7155v7.7156h-3.1707v-7.7156h-7.7156v7.7156h-3.1707v-22.938l-13.8992-13.8992-13.8992 13.8992v66.3256l4.0716 4.071z" fill="#016099"/><path d="m102.463 136.519v-13.248l13.899-13.899 7.934 7.929 13.589-13.589 13.899 13.899v9.838l4.072-4.071v-66.3256l-13.9-13.8992-13.899 13.8992v22.938h-3.17v-7.7156h-7.716v7.7156h-3.171v-7.7156h-7.715v7.7156h-3.171v-22.938l-13.8992-13.8992v80.1178z" fill="#3d113c"/><path d="m170.767 124.894c-.168.382-.341.764-.509 1.14.168-.376.341-.753.509-1.14z" fill="#00bcb4"/><path d="m169.881 126.838c-.209.438-.417.881-.631 1.319.214-.438.424-.878.631-1.319z" fill="#00bcb4"/><path d="m168.375 129.902c.249-.483.509-.972.728-1.46-.234.493-.494.977-.728 1.46z" fill="#00bcb4"/><path d="m171.529 123.113c-.248.597-.502 1.191-.763 1.781.257-.59.512-1.184.763-1.781z" fill="#fc6719"/><path d="m170.252 126.039-.371.804z" fill="#fc6719"/><path d="m169.25 128.156-.148.291z" fill="#fc6719"/><path d="m162.904 114.385-7.048 7.048-4.072 4.072v-7.894l-13.899-13.899-13.589 13.589-7.929-7.93-13.92 13.9v13.232l-13.2322-13.232v54.858c14.0752.009 27.9522-3.323 40.4882-9.723 12.537-6.399 23.375-15.683 31.624-27.088.117-.163.229-.331.346-.509.288-.401.572-.804.85-1.211.254-.367.509-.738.753-1.11s.545-.814.809-1.221c.265-.408.509-.774.733-1.166s.509-.809.758-1.221c.25-.413.509-.855.754-1.288.39-.679.77-1.357 1.14-2.036.264-.509.509-.967.783-1.46l.118-.219c.249-.484.508-.967.732-1.456l.148-.29c.214-.438.422-.875.631-1.318l.372-.804c.173-.382.346-.759.509-1.14.261-.591.515-1.184.763-1.782l.03-.066z" fill="#fc6719"/><g fill="#00bcb4"><path d="m8.18668 126.055c-.17813-.387-.35626-.774-.50895-1.166.15269.392.33082.779.50895 1.166z"/><path d="m9.17642 128.167c-.21884-.443-.42751-.891-.64126-1.339.21375.448.42751.894.64126 1.339z"/><path d="m9.31055 128.411c.24429.509.50894 1.018.74305 1.491-.25447-.495-.50215-.992-.74305-1.491z"/><path d="m171.529 123.114.031-.067z"/><path d="m89.2145 0c-14.6354.00545246-29.0441 3.61617-41.9525 10.513-12.9084 6.8968-23.9191 16.8674-32.0588 29.0304-8.13973 12.1631-13.1578 26.144-14.610716 40.7071-1.452911 14.563.704086 29.2595 6.280346 42.7915l8.65197-8.652 7.0489 7.043v-64.3807l13.8992-13.8991 13.8992 13.8991v22.938h3.1707v-7.7206h7.7155v7.7156h3.1707v-7.7156h7.7156v7.7156h3.1707v-22.933l13.8992-13.8991 13.8995 13.8991v22.938h3.17v-7.7206h7.716v7.7156h3.171v-7.7156h7.715v7.7156h3.171v-22.933l13.899-13.8991 13.899 13.8991v64.3807l7.049-7.048 8.652 8.652c5.574-13.532 7.729-28.2275 6.275-42.7893-1.454-14.5619-6.472-28.5415-14.612-40.7034-8.139-12.162-19.149-22.1319-32.056-29.0288-12.907-6.89692-27.314-10.50845565-41.9485-10.5155z"/><path d="m6.93335 123.205-.06616-.163z"/></g><path d="m9.30999 128.412-.12249-.25z" fill="#fdb98d"/><path d="m8.54181 126.828-.35626-.773z" fill="#fdb98d"/><path d="m75.9822 136.519v-13.233l-13.8992-13.899-7.9293 7.929-13.5887-13.589-13.9196 13.884v7.894l-4.0715-4.072-7.0488-7.048-8.65205 8.652.06616.163c.23411.563.47501 1.124.7227 1.684.17304.392.35117.779.50894 1.166l.35626.773c.20866.448.42242.896.64126 1.339l.12215.249c.24768.499.49707.994.74818 1.486l.1221.224c.2443.468.509.926.7482 1.39.3901.715.7888 1.426 1.196 2.132.2443.417.4784.84.7278 1.252.2493.412.5089.824.7634 1.237.2544.412.4784.768.7227 1.15s.5394.824.8143 1.232c.2748.407.5089.732.743 1.099.2341.366.57.819.8601 1.221l.341.509c8.2541 11.404 19.0977 20.685 31.6387 27.081 12.541 6.395 26.4212 9.721 40.4987 9.706v-54.859z" fill="#fdb98d"/></svg>

<svg width="179" height="179" viewBox="0 0 179 179" fill="none" xmlns="http://www.w3.org/2000/svg">
<path d="M26.6458 117.611L40.5449 103.712L54.1337 117.301L62.0681 109.372L75.9673 123.271V136.519L89.215 123.271V43.1532L75.3158 57.0524V79.9904H72.1451V72.2748H64.4296V79.9904H61.2589V72.2748H53.5433V79.9904H50.3726V57.0524L36.4734 43.1532L22.5742 57.0524V123.378L26.6458 127.449V117.611Z" fill="#016099"/>
<path d="M102.463 136.519V123.271L116.362 109.372L124.296 117.301L137.885 103.712L151.784 117.611V127.449L155.856 123.378V57.0524L141.956 43.1532L128.057 57.0524V79.9904H124.887V72.2748H117.171V79.9904H114V72.2748H106.285V79.9904H103.114V57.0524L89.2148 43.1532V123.271L102.463 136.519Z" fill="#3D113C"/>
<path d="M170.767 124.894C170.599 125.276 170.426 125.658 170.258 126.034C170.426 125.658 170.599 125.281 170.767 124.894Z" fill="#00BCB4"/>
<path d="M169.881 126.838C169.672 127.276 169.464 127.719 169.25 128.157C169.464 127.719 169.674 127.279 169.881 126.838Z" fill="#00BCB4"/>
<path d="M168.375 129.902C168.624 129.419 168.884 128.93 169.103 128.442C168.869 128.935 168.609 129.419 168.375 129.902Z" fill="#00BCB4"/>
<path d="M171.529 123.113C171.281 123.71 171.027 124.304 170.766 124.894C171.023 124.304 171.278 123.71 171.529 123.113Z" fill="#FC6719"/>
<path d="M170.252 126.039L169.881 126.843L170.252 126.039Z" fill="#FC6719"/>
<path d="M169.25 128.156L169.102 128.447L169.25 128.156Z" fill="#FC6719"/>
<path d="M162.904 114.385L155.856 121.433L151.784 125.505V117.611L137.885 103.712L124.296 117.301L116.367 109.371L102.447 123.271V136.503L89.2148 123.271V178.129C103.29 178.138 117.167 174.806 129.703 168.406C142.24 162.007 153.078 152.723 161.327 141.318V141.318C161.444 141.155 161.556 140.987 161.673 140.809C161.961 140.408 162.245 140.005 162.523 139.598C162.777 139.231 163.032 138.86 163.276 138.488C163.52 138.116 163.821 137.674 164.085 137.267C164.35 136.859 164.594 136.493 164.818 136.101C165.042 135.709 165.327 135.292 165.576 134.88C165.826 134.467 166.085 134.025 166.33 133.592C166.72 132.913 167.1 132.235 167.47 131.556C167.734 131.047 167.979 130.589 168.253 130.096L168.371 129.877C168.62 129.393 168.879 128.91 169.103 128.421L169.251 128.131C169.465 127.693 169.673 127.256 169.882 126.813L170.254 126.009C170.427 125.627 170.6 125.25 170.763 124.869C171.024 124.278 171.278 123.685 171.526 123.087L171.556 123.021L162.904 114.385Z" fill="#FC6719"/>
<path d="M8.18668 126.055C8.00855 125.668 7.83042 125.281 7.67773 124.889C7.83042 125.281 8.00855 125.668 8.18668 126.055Z" fill="#00BCB4"/>
<path d="M9.17642 128.167C8.95758 127.724 8.74891 127.276 8.53516 126.828C8.74891 127.276 8.96267 127.722 9.17642 128.167Z" fill="#00BCB4"/>
<path d="M9.31055 128.411C9.55484 128.92 9.81949 129.429 10.0536 129.902C9.79913 129.407 9.55145 128.91 9.31055 128.411Z" fill="#00BCB4"/>
<path d="M171.529 123.114L171.56 123.047L171.529 123.114Z" fill="#00BCB4"/>
<path d="M89.2145 0C74.5791 0.00545246 60.1704 3.61617 47.262 10.513C34.3536 17.4098 23.3429 27.3804 15.2032 39.5434C7.06347 51.7065 2.0454 65.6874 0.592484 80.2505C-0.860427 94.8135 1.29657 109.51 6.87283 123.042L15.5248 114.39L22.5737 121.433V57.0523L36.4729 43.1532L50.3721 57.0523V79.9903H53.5428V72.2697H61.2583V79.9853H64.429V72.2697H72.1446V79.9853H75.3153V57.0523L89.2145 43.1532L103.114 57.0523V79.9903H106.284V72.2697H114V79.9853H117.171V72.2697H124.886V79.9853H128.057V57.0523L141.956 43.1532L155.855 57.0523V121.433L162.904 114.385L171.556 123.037C177.13 109.505 179.285 94.8095 177.831 80.2477C176.377 65.6858 171.359 51.7062 163.219 39.5443C155.08 27.3823 144.07 17.4124 131.163 10.5155C118.256 3.61858 103.849 0.00704435 89.2145 0V0Z" fill="#00BCB4"/>
<path d="M6.93335 123.205L6.86719 123.042L6.93335 123.205Z" fill="#00BCB4"/>
<path d="M9.30999 128.412L9.1875 128.162L9.30999 128.412Z" fill="#FDB98D"/>
<path d="M8.54181 126.828L8.18555 126.055L8.54181 126.828Z" fill="#FDB98D"/>
<path d="M75.9822 136.519V123.286L62.083 109.387L54.1537 117.316L40.565 103.727L26.6454 117.611V125.505L22.5739 121.433L15.5251 114.385L6.87305 123.037L6.93921 123.2C7.17332 123.763 7.41422 124.324 7.66191 124.884C7.83495 125.276 8.01308 125.663 8.17085 126.05L8.52711 126.823C8.73577 127.271 8.94953 127.719 9.16837 128.162L9.29052 128.411C9.5382 128.91 9.78759 129.405 10.0387 129.897L10.1608 130.121C10.4051 130.589 10.6698 131.047 10.909 131.511C11.2991 132.226 11.6978 132.937 12.105 133.643C12.3493 134.06 12.5834 134.483 12.8328 134.895C13.0821 135.307 13.3417 135.719 13.5962 136.132C13.8506 136.544 14.0746 136.9 14.3189 137.282C14.5632 137.664 14.8583 138.106 15.1332 138.514C15.408 138.921 15.6421 139.246 15.8762 139.613C16.1103 139.979 16.4462 140.432 16.7363 140.834L17.0773 141.343C25.3314 152.747 36.175 162.028 48.716 168.424C61.257 174.819 75.1372 178.145 89.2147 178.13V123.271L75.9822 136.519Z" fill="#FDB98D"/>
</svg>
